X:2890
T:Jeg lagde meg s\aa silde
C:anon.
O:Norway
A:V\aag\aa
Z:Transcribed by Frank Nordberg - http://www.musicaviva.com
F:http://abc.musicaviva.com/tunes/norway/jeg-lagde-meg-saa/jeg-lagde-meg-saa-1.abc
M:2/4
L:1/8
Q:1/4=72
K:Dm
^G|(AA)A^c|d2df|(fe)(ec)|A3A|
w:Jeg lag-de meg s\aa sil-de alt sent_ om en kveld, jeg
w:S\aa kom_ der et bud i-fra kj\ae--res-ten min, jeg
(dd)cA|(BB)AF|G2A2-|A2 z:|z||
w:viss-te in-gen kvi-de til at ha-ve._
w:m\aat--te til hen--ne vel fa-re._
A>A f>e|e>f d>=B|^c2d2-|Hd2z|]
w:In-gen har man el-sket o-ver hen-ne._
W:
W:Jeg lagde meg s\aa silde alt sent om en kveld,
W:jeg visste ingen kvide til at have.
W:S\aa kom der et bud ifra kj\aeresten min,
W:jeg m\aatte til henne vel fare.
W:Ingen har man elsket over henne.
W:
W:
W:  From Musica Viva - http://www.musicaviva.com
W:  the Internet center for free sheet music downloads.

